!!!COM: Haydn, Franz Joseph
!!!OTL: String Quartet in D Minor
!!!OPS: Opus 76
!!!ONM: No. 2
!!!OMD: Allegro
!!!OMV: 1
!!!SCT: H III:76
!!!SCA: Thematisch-bibliographisches Werkevererzeichnis (A. van Hoboken)
!!!YOR: Trautwein Edition
!!!ENC: Frances Bennion
!!!CDT: 1732/3/31/-1809/5/31/
!!!CNT: Oesterreich
!!!YEC: Copyright (c) 1994, 2000 Center for Computer Assisted Research in the Humanities
!!!YEM: Rights to all derivative editions reserved.
!!!YEM: Refer to licensing agreement for further details.
!!!YEN: United States of America
**harm	**chord	**kern	**kern	**kern	**kern	**kern	**kern
*k[b-]	*k[b-]	*k[b-]	*k[b-]	*k[b-]	*k[b-]	*k[b-]	*k[b-]
*	*	*d:	*d:	*d:	*d:	*d:	*d:
*	*	*clefF4	*clefC3	*clefF	*clefF	*clefF	*clefF
*M4/4	*M4/4	*M4/4	*M4/4	*M4/4	*M4/4	*M4/4	*M4/4
i	Dm	8DD	8F	1r	8r	1r	2a
.	.	8D	8F	.	8A	.	.
.	.	8D	8F	.	8A	.	.
.	.	8D	8F	.	8A	.	.
.	.	8r	8r	.	8r	.	2d
.	.	8D	8F	.	8A	.	.
.	.	8D	8F	.	8A	.	.
.	.	8D	8F	.	8A	.	.
=2	=2	=2	=2	=2	=2	=2	=2
iiom7	Ehalfdim7/D	8r	8r	1r	8r	1r	2e
.	.	8D	8G	.	8B-	.	.
.	.	8D	8G	.	8B-	.	.
.	.	8D	8G	.	8B-	.	.
.	.	8r	8r	.	8r	.	2A
V	A7/E	8E	8G	.	8c#	.	.
.	.	8E	8G	.	8c#	.	.
.	.	8E	8G	.	8c#	.	.
=3	=3	=3	=3	=3	=3	=3	=3
i	Dm	8F	2..A	1r	8d	1r	8d
.	.	8E	.	.	8c#	.	8c#
.	.	8F	.	.	8d	.	8d
.	.	8C#	.	.	8e	.	8e
.	.	4D	.	.	4d	.	4f
II7	A7	4AA	.	.	8c#	.	8e
.	.	.	8C#	.	16a	.	8a
.	.	.	.	.	16g	.	.
=4	=4	=4	=4	=4	=4	=4	=4
VI	Bb	2BB-	8D	1r	16f	1r	4dd 4d
.	.	.	.	.	16g	.	.
.	.	.	8E	.	16f	.	.
.	.	.	.	.	16e	.	.
.	.	.	8F	.	8d	.	16cc
.	.	.	.	.	.	.	16b-
.	.	.	8D	.	8d	.	16a
.	.	.	.	.	.	.	16g#
V7	A7	4AA	4E	.	4c#	.	4a
.	.	4r	4r	.	4r	.	4r
=5	=5	=5	=5	=5	=5	=5	=5
i	Dm	8r	8r	1r	8r	1r	2aa
.	.	8d	8f	.	8a	.	.
.	.	8d	8f	.	8a	.	.
.	.	8d	8f	.	8a	.	.
.	.	8r	8r	.	8r	.	2dd
.	.	8d	8f	.	8a	.	.
.	.	8d	8f	.	8a	.	.
.	.	8d	8f	.	8a	.	.
=6	=6	=6	=6	=6	=6	=6	=6
iiom7	Ehalfdim7/D	8r	8r	1r	8r	1r	2ee
.	.	8d	8g	.	8b-	.	.
.	.	8d	8g	.	8b-	.	.
.	.	8d	8g	.	8b-	.	.
V	A7/E	8r	8r	.	8r	.	2a
.	.	8e	8g	.	8cc#	.	.
.	.	8e	8g	.	8cc#	.	.
.	.	8e	8g	.	8cc#	.	.
=7	=7	=7	=7	=7	=7	=7	=7
i	Dm	8f	[2a	1r	4dd	1r	8dd
.	.	8e	.	.	.	.	8cc#
.	.	8f	.	.	8r	.	8dd
.	.	8c#	.	.	16a	.	8ee
.	.	.	.	.	16ee	.	.
.	.	4d	4a]	.	4dd	.	4ff
V7	A7	8A	4r	.	8cc#	.	8ee
.	.	8r	.	.	8dd	.	8ff
=8	=8	=8	=8	=8	=8	=8	=8
.	.	1r	2..r	1r	4ee	1r	4gg
i	Dm	.	.	.	8dd	.	8ff
.	.	.	.	.	8ff	.	8aa
.	.	.	.	.	4gg	.	4bb-
.	.	.	.	.	8ff	.	8aa
.	.	.	8ff	.	8aa	.	8ddd
=9	=9	=9	=9	=9	=9	=9	=9
viioD7	C#dim7	1r	4ee	1r	4gg	1r	4ccc#
.	.	.	8r	.	8r	.	8r
VI	B-/D	.	8dd	.	8ff	.	8bb-
V	A/C#	.	4cc#	.	4ee	.	4aa
.	.	.	8r	.	8r	.	8r
VI	B-/D	.	8d	.	8f	.	8b-
=10	=10	=10	=10	=10	=10	=10	=10
V	A/C#	4.r	4c#	1r	4e	1r	4a
.	.	.	8r	.	2r	.	8r
i7	D7	8D	8F	.	.	.	8B-
.	.	4C#	4E	.	.	.	4A
.	.	8r	8r	.	8r	.	8r
.	.	8C	8A	.	8d	.	8f#
=11	=11	=11	=11	=11	=11	=11	=11
iv	Gm/B-	8BB-	8G	1r	8d	1r	8g
i	Dm/A	8AA	8c	.	8d	.	8f#
.	.	8BB-	8B-	.	8d	.	8g
.	.	8FF#	8c	.	8d	.	8a
.	.	4GG	4B-	.	4d	.	4b-
.	.	4r	4r	.	4r	.	16a
.	.	.	.	.	.	.	16g
.	.	.	.	.	.	.	16f
.	.	.	.	.	.	.	16e
=12	=12	=12	=12	=12	=12	=12	=12
V7	A7	8AA	8d	1r	8f 8A	1r	4a
.	.	8r	8r	.	8r	.	.
.	.	8AA	8G	.	8e 8A	.	8c#
.	.	8r	8r	.	8r	.	8r
i	Dm	4DD	4F	.	4d	.	4d
.	.	4r	4r	.	4r	.	4r
=13	=13	=13	=13	=13	=13	=13	=13
*F:	*F:	*F:	*F:	*F:	*F:	*F:	*F:
I	F	1r	2f	1r	1r	1r	16a
.	.	.	.	.	.	.	16cc
.	.	.	.	.	.	.	16ff
.	.	.	.	.	.	.	16aa
.	.	.	.	.	.	.	8ccc
.	.	.	.	.	.	.	8ccc
ii	Gm/B-	.	2B-	.	.	.	8ccc
.	.	.	.	.	.	.	8dd
.	.	.	.	.	.	.	8bb-
.	.	.	.	.	.	.	16aa
.	.	.	.	.	.	.	16gg
=14	=14	=14	=14	=14	=14	=14	=14
V7	C7	1r	2c	1r	1r	1r	16ff
.	.	.	.	.	.	.	16ee
.	.	.	.	.	.	.	16aa
.	.	.	.	.	.	.	16gg
.	.	.	.	.	.	.	16ff
.	.	.	.	.	.	.	16ee
.	.	.	.	.	.	.	16dd
.	.	.	.	.	.	.	16cc
I	F	.	2F	.	.	.	4b-
.	.	.	.	.	.	.	8a
.	.	.	.	.	.	.	8cc
=15	=15	=15	=15	=15	=15	=15	=15
IV	B-	1r	8B-	1r	2dd	1r	16cc
.	.	.	.	.	.	.	16d
.	.	.	8B-	.	.	.	16e
.	.	.	.	.	.	.	16f#
ii	Gm/B-	.	8B-	.	.	.	16g
.	.	.	.	.	.	.	16a
.	.	.	8B-	.	.	.	16b-
.	.	.	.	.	.	.	16cc
.	.	.	8b-	.	2g	.	8dd
.	.	.	8b-	.	.	.	8dd
.	.	.	8b-	.	.	.	8dd
.	.	.	8b-	.	.	.	8gg
=16	=16	=16	=16	=16	=16	=16	=16
V7	C7	1r	8b-	1r	2cc	1r	4.ee
.	.	.	8b-	.	.	.	.
.	.	.	8b-	.	.	.	.
.	.	.	8b-	.	.	.	16dd
.	.	.	.	.	.	.	16ee
I	F/A	.	4a	.	4f	.	8ff
.	.	.	.	.	.	.	8aa
.	.	.	4f	.	4cc	.	8ccc
.	.	.	.	.	.	.	8ccc
=17	=17	=17	=17	=17	=17	=17	=17
II7	G7	2G	2f	1r	2dd	1r	8ccc
.	A	.	.	.	.	.	8bb
.	r	.	.	.	.	.	8bb
.	r	.	.	.	.	.	8bb
.	r	2C	8r	.	8r	.	8r
.	r	.	8g	.	8ee	.	8bb-
.	D	.	8g	.	8ee	.	8bb-
.	D	.	8g	.	8ee	.	8bb-
=18	=18	=18	=18	=18	=18	=18	=18
vi	Dm	2D	8g	1r	8ee	1r	8bb-
.	.	.	8f	.	8ff	.	8aa
.	.	.	8f	.	8ff	.	8aa
.	.	.	8f	.	8ff	.	8aa
ii	Gm	2GG	2d 2G	.	8.b-	.	4ddd
.	.	.	.	.	16cc	.	.
.	.	.	.	.	8dd	.	16ccc
.	.	.	.	.	.	.	16bb-
.	.	.	.	.	16cc	.	16aa
.	.	.	.	.	16b-	.	16gg
=19	=19	=19	=19	=19	=19	=19	=19
I	F/C	8C	2c	1r	4.a	1r	4.ff
.	.	8c	.	.	.	.	.
.	.	8c	.	.	.	.	.
.	.	8c	.	.	16b-	.	16gg
.	.	.	.	.	16a	.	16ff
V	C	4c	4C	.	4g	.	8ee
.	.	.	.	.	.	.	16cc
.	.	.	.	.	.	.	16dd
.	.	4r	4r	.	4r	.	16ee
.	.	.	.	.	.	.	16ff
.	.	.	.	.	.	.	16gg
.	.	.	.	.	.	.	16aa
=20	=20	=20	=20	=20	=20	=20	=20
V7	C7	8CC	8E	1r	8G 8e	1r	2bb-
.	.	8C	8e	.	8b- 8g	.	.
.	.	8C	8e	.	8g 8b-	.	.
.	.	8C	8e	.	8b- 8g	.	.
.	.	8C	8e	.	8g 8b-	.	2ee
.	.	8C	8e	.	8g 8b-	.	.
.	.	8C	8e	.	8b- 8g	.	.
.	.	8C	8e	.	8b- 8g	.	.
=21	=21	=21	=21	=21	=21	=21	=21
I	F	8CC	8F	1r	8A 8f	1r	2ccc
.	.	8C	8f 8A	.	8f 8a	.	.
.	.	8C	8f 8A	.	8a 8f	.	.
.	.	8C	8f 8A	.	8a 8f	.	.
.	.	8C	8f 8A	.	8a 8f	.	2ff
.	.	8C	8f 8A	.	8a 8f	.	.
.	.	8C	8f 8A	.	8f 8a	.	.
.	.	8C	8A 8f	.	8a 8f	.	.
=22	=22	=22	=22	=22	=22	=22	=22
ii	Gm	8C	8d	1r	8ff# 8a	1r	8ddd
.	.	8r	8d	.	8ff# 8a	.	8r
.	.	8BB-	8r	.	8r	.	8gg
.	.	8r	8dd	.	8gg 8b-	.	8r
V7	C7/B-	8B-	8r	.	8r	.	8ccc
.	.	8r	8g	.	8ee 8cc	.	8r
.	.	8A	8r	.	8r	.	8ff
.	.	8r	8a	.	8ff 8cc	.	8ccc
=23	=23	=23	=23	=23	=23	=23	=23
.	C7	8E	8b-	1r	8r	8cc	8gg
.	.	8C	8e	.	8gg	4.r	8bb-
.	.	8F	8f	.	8aa	.	8aa
.	.	8C	8a	.	8aa	.	8ccc
.	.	8E	8b-	.	8r	8cc	8gg
.	.	8C	8e	.	8gg	4.r	8bb-
I	F	8F	8f	.	8aa	.	8aa
.	.	8r	8a	.	8aa	.	8ccc
=24	=24	=24	=24	=24	=24	=24	=24
.	.	16EE	8b-	1r	8r	8cc	16gg
.	.	16CC	.	.	.	.	16bb-
.	.	16EE	8e	.	8g	8cc	16gg
.	.	16CC	.	.	.	.	16bb-
.	.	16FF	8f	.	8a	8cc	8aa
.	.	16CC	.	.	.	.	.
.	.	16FF	8a	.	8a	8cc	8ccc
.	.	16CC	.	.	.	.	.
.	.	16EE	8b-	.	8r	8cc	16gg
.	.	16CC	.	.	.	.	16bb-
.	.	16EE	8e	.	8g	8cc	16gg
.	.	16CC	.	.	.	.	16bb-
.	.	8FF	8f	.	8a	8cc	8aa
.	.	8r	8r	.	8a	8cc	8ccc
=25	=25	=25	=25	=25	=25	=25	=25
IV	B-	2d	2f	1r	2b-	1r	2bb-
iii	Am	2c	2e	.	2a	.	2aa
=26	=26	=26	=26	=26	=26	=26	=26
viio	Edim	2.B-	2d	1r	2dd	1r	2ddd
.	.	.	4e	.	4g	.	4gg
.	.	8r	8r	.	8r	.	8r
.	.	[8A	[8f	.	[8aa	.	[8ccc
=27	=27	=27	=27	=27	=27	=27	=27
I	F	8A]	8f]	1r	8aa]	1r	8ccc]
ii	Gm	[8B-	[8dd	.	[8gg	.	[8bb-
.	.	8B-]	8dd]	.	8gg]	.	8bb-]
I	F/C	[8c	[8cc	.	[8ff	.	[8aa
.	.	8c]	8cc]	.	8ff]	.	8aa]
V7	C7	[8C	[8b-	.	[8ee	.	[8gg
.	.	8C]	8b-]	.	8ee]	.	8gg]
.	.	8r	8r	.	8ff	.	8aa
=28	=28	=28	=28	=28	=28	=28	=28
iv	B-/D	2d	2f	1r	2b-	1r	2bb-
iii	Am	2c	2e	.	2a	.	2aa
=29	=29	=29	=29	=29	=29	=29	=29
ii#o	G#dim/B	2B	2d	1r	2g#	1r	2gg#
iii	Am/C	4c	4e	.	4a	.	4aa
.	.	8r	8r	.	8r	.	8r
VI7	D7	[8d	[8a	.	[8cc	.	[8ff#
=30	=30	=30	=30	=30	=30	=30	=30
ii	Gm	8d]	8a]	1r	8cc]	1r	8ff#]
.	.	[8G	[8b-	.	[8dd	.	[8gg
.	.	8G]	8b-]	.	8dd]	.	8gg]
V7	C7	[8c	[8g	.	[8b-	.	[8ee
.	.	8c]	8g]	.	8b-]	.	8ee]
I	F	[8F	[8a	.	[8cc	.	[8ff
.	.	8F]	8a]	.	8cc]	.	8ff]
.	.	[8B-	[8g	.	[8dd	.	[8gg
=31	=31	=31	=31	=31	=31	=31	=31
ii	Gm/B-	4B-]	4g]	1r	4dd]	1r	4gg]
.	.	8r	8r	.	8r	.	8r
V7	C7	[8C	[8g	.	[8ee 8b-	.	[8ccc
.	.	4C]	4g]	.	4ee 4b-]	.	4ccc]
.	.	8r	8r	.	8r	.	8r
.	.	8C	8B-	.	8g	.	8ee
=32	=32	=32	=32	=32	=32	=32	=32
*f:	*f:	*f:	*f:	*f:	*f:	*f:	*f:
i	Fm	4F	4A-	1r	4f 4A-	1r	16ff
.	.	.	.	.	.	.	16ee
.	.	.	.	.	.	.	16ff
.	.	.	.	.	.	.	16gg
.	.	4r	8a-	.	8cc	.	16aa-
.	.	.	.	.	.	.	16ff
.	.	.	8b-	.	8dd-	.	16gg
.	.	.	.	.	.	.	16ee
.	.	4F	8a-	.	8cc	.	16ff
.	.	.	.	.	.	.	16cc
.	.	.	4.r	.	4.r	.	16b-
.	.	.	.	.	.	.	16cc
.	.	4r	.	.	.	.	16a-
.	.	.	.	.	.	.	16cc
.	.	.	.	.	.	.	16ff
.	.	.	.	.	.	.	16ff
=33	=33	=33	=33	=33	=33	=33	=33
viioD7	Edim7	4E	4c	1r	8G 8e 8cc	1r	16gg
i	Fm	.	.	.	.	.	16ff
.	.	.	.	.	8r	.	16gg
.	.	.	.	.	.	.	16aa-
.	.	4r	8e	.	8cc	.	16bb-
.	.	.	.	.	.	.	16gg
.	.	.	8f	.	8b	.	16aa-
.	.	.	.	.	.	.	16ff
v7	C7/E	4E	8e	.	8cc	.	16gg
.	.	.	.	.	.	.	16cc
.	.	.	4.r	.	4.r	.	16b
.	.	.	.	.	.	.	16cc
.	.	4r	.	.	.	.	16e
.	.	.	.	.	.	.	16cc
.	.	.	.	.	.	.	16gg
.	.	.	.	.	.	.	16gg
=34	=34	=34	=34	=34	=34	=34	=34
i	Fm	8FF	4f	1r	2c	1r	2aa-
.	.	8F	.	.	.	.	.
.	.	8F	2A-	.	.	.	.
.	.	8F	.	.	.	.	.
VII	D-/F	8F	.	.	2d-	.	4.dd-
.	.	8F	.	.	.	.	.
.	.	8F	8.a-	.	.	.	.
.	.	8F	.	.	.	.	16cc
.	.	.	16f	.	.	.	16dd-
=35	=35	=35	=35	=35	=35	=35	=35
vii-7	E-7/G	8GG	4e-	1r	4.d-	1r	2bb-
.	.	8G	.	.	.	.	.
.	.	8G	2e-	.	.	.	.
.	.	8G	.	.	16c	.	.
.	.	.	.	.	16d-	.	.
.	.	8G	.	.	4b-	.	4.d-
.	.	8G	.	.	.	.	.
.	.	8G	4e-	.	4b-	.	.
.	.	8G	.	.	.	.	16c
.	.	.	.	.	.	.	16d-
=36	=36	=36	=36	=36	=36	=36	=36
*A-:	*A-:	*A-:	*A-:	*A-:	*A-:	*A-:	*A-:
I	A-	4A-	2A- 2e-	1r	2a-	1r	8c
.	.	.	.	.	.	.	8eee-
.	.	2.r	.	.	.	.	8eee-
.	.	.	.	.	.	.	8eee-
IV	D-/F	.	2f	.	2d-	.	4eee-
.	.	.	.	.	.	.	16ddd-
.	.	.	.	.	.	.	16ccc
.	.	.	.	.	.	.	16bb-
.	.	.	.	.	.	.	16aa-
=37	=37	=37	=37	=37	=37	=37	=37
V	E-/G	1r	2g	1r	2e-	1r	16gg
.	.	.	.	.	.	.	16aa-
.	.	.	.	.	.	.	16gg
.	.	.	.	.	.	.	16aa-
.	.	.	.	.	.	.	16bb-
.	.	.	.	.	.	.	16ccc
.	.	.	.	.	.	.	16bb-
.	.	.	.	.	.	.	16ccc
V7	E-7	.	2e-	.	2G	.	16ddd-
.	.	.	.	.	.	.	16ccc
.	.	.	.	.	.	.	16bb-
.	.	.	.	.	.	.	16aa-
.	.	.	.	.	.	.	16gg
.	.	.	.	.	.	.	16ff
.	.	.	.	.	.	.	16ee-
.	.	.	.	.	.	.	16dd-
=38	=38	=38	=38	=38	=38	=38	=38
I	A-/C	1r	4cc	1r	2A-	1r	8cc
.	.	.	.	.	.	.	8ccc
.	.	.	4r	.	.	.	8ccc
.	.	.	.	.	.	.	8ccc
ii	B-m	.	2d-	.	2f	.	4ccc
.	.	.	.	.	.	.	16bb-
.	.	.	.	.	.	.	16aa-
.	.	.	.	.	.	.	16gg
.	.	.	.	.	.	.	16ff
=39	=39	=39	=39	=39	=39	=39	=39
iii	C	1r	2c	1r	4g	1r	16ee
.	.	.	.	.	.	.	16ff
.	.	.	.	.	.	.	16ee
.	.	.	.	.	.	.	16ff
.	.	.	.	.	4e	.	16gg
.	.	.	.	.	.	.	16aa-
.	.	.	.	.	.	.	16gg
.	.	.	.	.	.	.	16aa-
iii7	C7	.	2E	.	4c	.	16bb-
.	.	.	.	.	.	.	16aa-
.	.	.	.	.	.	.	16gg
.	.	.	.	.	.	.	16ff
.	.	.	.	.	4g	.	16ee
.	.	.	.	.	.	.	16dd-
.	.	.	.	.	.	.	16cc
.	.	.	.	.	.	.	16b-
=40	=40	=40	=40	=40	=40	=40	=40
*f:	*f:	*f:	*f:	*f:	*f:	*f:	*f:
i	Fm	2FF	4F	1r	4a-	1r	8a-
.	.	.	.	.	.	.	8cc
.	.	.	2f	.	2a-	.	8cc
.	.	.	.	.	.	.	8cc
vi	B-m/D-	2DD-	.	.	.	.	4cc
.	.	.	4F	.	4f	.	16b-
.	.	.	.	.	.	.	16a-
.	.	.	.	.	.	.	16g
.	.	.	.	.	.	.	16f
=41	=41	=41	=41	=41	=41	=41	=41
v	C	8CC	4E	1r	4g	1r	16.c
.	.	.	.	.	.	.	32cc
.	.	8C	.	.	.	.	16.c
.	.	.	.	.	.	.	32cc
.	.	8C	4.r	.	8r	.	16.c
.	.	.	.	.	.	.	32cc
.	.	2r	.	.	8a-	.	16.c
.	.	.	.	.	.	.	32cc
.	.	.	.	.	8g	.	16.c
.	.	.	.	.	.	.	32b-
i	Fm	.	8C	.	8f	.	16.c
.	.	.	.	.	.	.	32a-
.	.	.	8c	.	8e	.	16.c
.	.	.	.	.	.	.	32g
.	.	8r	8c	.	8f	.	16.c
.	.	.	.	.	.	.	32a-
=42	=42	=42	=42	=42	=42	=42	=42
v	C	8CC	4C	1r	4e	1r	16.c
.	.	.	.	.	.	.	32g
.	.	8C	.	.	.	.	16.c
.	.	.	.	.	.	.	32g
.	.	8C	4.r	.	8r	.	16.c
.	.	.	.	.	.	.	32g
.	.	2r	.	.	8a-	.	16.c
.	.	.	.	.	.	.	32cc
.	.	.	.	.	8g	.	16.c
.	.	.	.	.	.	.	32b-
i	Fm	.	8C	.	8f	.	16.c
.	.	.	.	.	.	.	32a-
.	.	.	8c	.	8e	.	16.c
.	.	.	.	.	.	.	32g
.	.	8r	8c	.	8f	.	16.c
.	.	.	.	.	.	.	32a-
=43	=43	=43	=43	=43	=43	=43	=43
v	C	8CC	4C	1r	4e	1r	16.c
.	.	.	.	.	.	.	32g
.	.	8C	.	.	.	.	16.c
.	.	.	.	.	.	.	32g
.	.	8C	4.r	.	8r	.	16.c
.	.	.	.	.	.	.	32g
.	.	8C	.	.	8a-	.	16.c
.	.	.	.	.	.	.	32cc
.	.	8C	.	.	8g	.	16.c
.	.	.	.	.	.	.	32b-
i	Fm	8C	8C	.	8f	.	16.c
.	.	.	.	.	.	.	32a-
.	.	8C	8c	.	8e	.	16.c
.	.	.	.	.	.	.	32g
.	.	8C	8c	.	8f	.	16.c
.	.	.	.	.	.	.	32a-
=44	=44	=44	=44	=44	=44	=44	=44
i	C	4CC	4C	1r	4e	1r	8g
.	.	.	.	.	.	.	8cc
.	.	2.r	2.r	.	2.r	.	8cc
.	.	.	.	.	.	.	8cc
.	.	.	.	.	.	.	8cc
.	.	.	.	.	.	.	8cc
.	.	.	.	.	.	.	8cc
.	.	.	.	.	.	.	8cc
=45	=45	=45	=45	=45	=45	=45	=45
*F:	*F:	*F:	*F:	*F:	*F:	*F:	*F:
VI7	D7/F#	1r	2F#	1r	2dd	1r	16cc
.	.	.	.	.	.	.	16d
.	.	.	.	.	.	.	16e
.	.	.	.	.	.	.	16f#
.	.	.	.	.	.	.	16g
.	.	.	.	.	.	.	16a
.	.	.	.	.	.	.	16b-
.	.	.	.	.	.	.	16cc
ii	Gm	.	4G	.	4b-	.	8dd
.	.	.	.	.	.	.	8dd
.	.	.	4b-	.	4g	.	8dd
.	.	.	.	.	.	.	8gg
=46	=46	=46	=46	=46	=46	=46	=46
V7	C7/B-	1r	8b-	1r	2cc	1r	4.ee
.	.	.	8b-	.	.	.	.
.	.	.	8b-	.	.	.	.
.	.	.	8b-	.	.	.	16dd
.	.	.	.	.	.	.	16ee
I	F/A	.	4a	.	4f	.	8ff
.	.	.	.	.	.	.	8aa
.	.	.	4f	.	4cc	.	8ccc
.	.	.	.	.	.	.	8ccc
=47	=47	=47	=47	=47	=47	=47	=47
ii7	G7	2G	2f	1r	2dd	1r	8ccc
.	.	.	.	.	.	.	8bb
.	.	.	.	.	.	.	8bb
.	.	.	.	.	.	.	8bb
V7	C7	2C	8r	.	8r	.	8r
.	.	.	8g	.	8ee	.	8bb-
.	.	.	8g	.	8ee	.	8bb-
.	.	.	8g	.	8ee	.	8bb-
=48	=48	=48	=48	=48	=48	=48	=48
vi	Dm	2D	8g	1r	8ee	1r	8bb-
.	.	.	8f	.	8ff	.	8aa
.	.	.	8f	.	8ff	.	8aa
.	.	.	8f	.	8ff	.	8aa
ii	Gm	2GG	2G 2d	.	8.b-	.	4ddd
.	.	.	.	.	16cc	.	.
.	.	.	.	.	8dd	.	16ccc
.	.	.	.	.	.	.	16bb-
.	.	.	.	.	16cc	.	16aa
.	.	.	.	.	16b-	.	16gg
=49	=49	=49	=49	=49	=49	=49	=49
I	F/C	8C	2.c	1r	2a	1r	4.ff
.	.	8C	.	.	.	.	.
.	.	8C	.	.	.	.	.
.	.	8C	.	.	.	.	16gg
.	.	.	.	.	.	.	16ff
V7	C7	8C	.	.	4b-	.	16ee
.	.	.	.	.	.	.	16ff
.	.	8C	.	.	.	.	16gg
.	.	.	.	.	.	.	16aa
.	.	8C	[4c	.	4B- 4e	.	16bb-
.	.	.	.	.	.	.	16aa
.	.	8C	.	.	.	.	16bb-
.	.	.	.	.	.	.	16gg
=50	=50	=50	=50	=50	=50	=50	=50
I	F	8F	4c]	2A	2f	1r	16ff
.	.	.	.	.	.	.	16gg
.	.	8F	.	.	.	.	16aa
.	.	.	.	.	.	.	16bb-
V7	C7/F	8F	2c	.	.	.	16ccc
.	.	.	.	.	.	.	16ddd
.	.	8F	.	.	.	.	16eee
.	.	.	.	.	.	.	16fff
.	.	8F	.	4.B-	2e	.	8ggg
.	.	8F	.	.	.	.	8aaa
.	.	8F	[4c	.	.	.	8bbb-
.	.	8F	.	8G	.	.	8eee
=51	=51	=51	=51	=51	=51	=51	=51
I	F	8F	4c]	2A	2f	1r	8fff
.	.	8F	.	.	.	.	8ggg
V7	C7/F	8F	2c	.	.	.	8aaa
.	.	8F	.	.	.	.	8fff
.	.	8F	.	4.B-	2e	.	8ggg
.	.	8F	.	.	.	.	8aaa
.	.	8F	[4c	.	.	.	8bbb-
.	.	8F	.	8G	.	.	8eee
=52	=52	=52	=52	=52	=52	=52	=52
I	F	8F	8c]	1r	8f 8A	1r	16fff
.	.	.	.	.	.	.	16eee
.	.	8F	8c	.	8f 8A	.	16fff
.	.	.	.	.	.	.	16aaa
.	.	8F	8c	.	8A 8f	.	16fff
.	.	.	.	.	.	.	16eee
.	.	8F	8c	.	8A 8f	.	16fff
.	.	.	.	.	.	.	16aaa
.	.	4F	4c	.	4A 4f	.	4fff
.	.	4r	4r	.	4r	.	4r
=53	=53	=53	=53	=53	=53	=53	=53
V7	C7	8e	8g	1r	8b-	1r	16ccc
.	.	.	.	.	.	.	16ddd
.	.	8e	8g	.	8b-	.	16ccc
.	.	.	.	.	.	.	16bb
.	.	8e	8g	.	8b-	.	16ccc
.	.	.	.	.	.	.	16ddd
.	.	8e	8g	.	8b-	.	16ccc
.	.	.	.	.	.	.	16bb
.	.	4e	4g	.	4b-	.	4ccc
.	.	4r	4r	.	4r	.	4r
=54	=54	=54	=54	=54	=54	=54	=54
I	F	8F	8A	1r	8c	1r	16ff
.	.	.	.	.	.	.	16gg
.	.	8F	8B-	.	8d	.	16ff
.	.	.	.	.	.	.	16ee
.	.	8F	8A	.	8c	.	16ff
.	.	.	.	.	.	.	16gg
.	.	8F	8B-	.	8d	.	16ff
.	.	.	.	.	.	.	16ee
.	.	4F	4A	.	4c	.	4ff
.	.	4r	4r	.	4r	.	4r
=55	=55	=55	=55	=55	=55	=55	=55
V7	C7	8e	8g	1r	8b-	1r	16ccc
.	.	.	.	.	.	.	16ddd
.	.	8e	8g	.	8b-	.	16ccc
.	.	.	.	.	.	.	16bb
.	.	8e	8g	.	8b-	.	16ccc
.	.	.	.	.	.	.	16ddd
.	.	8e	8g	.	8b-	.	16ccc
.	.	.	.	.	.	.	16bb
.	.	4e	4g	.	4b-	.	4ccc
.	.	4r	4r	.	4r	.	4r
=56	=56	=56	=56	=56	=56	=56	=56
I	F	16FF	1r	1r	1r	1r	1r
.	.	16GG	.	.	.	.	.
.	.	16FF	.	.	.	.	.
.	.	16EE	.	.	.	.	.
.	.	16FF	.	.	.	.	.
.	.	16GG	.	.	.	.	.
.	.	16FF	.	.	.	.	.
.	.	16EE	.	.	.	.	.
.	.	16FF	.	.	.	.	.
.	.	16GG	.	.	.	.	.
.	.	16FF	.	.	.	.	.
.	.	16EE	.	.	.	.	.
.	.	16FF	.	.	.	.	.
.	.	16GG	.	.	.	.	.
.	.	16FF	.	.	.	.	.
.	.	16EE	.	.	.	.	.
=57	=57	=57	=57	=57	=57	=57	=57
*g:	*g:	*g:	*g:	*g:	*g:	*g:	*g:
V7m9	D7b9	2DD	8r	1r	8r	1r	8r
.	.	.	8F#	.	8A	.	8e- 8c
.	.	.	8F#	.	8A	.	8e- 8c
.	.	.	8F#	.	8A	.	8e- 8c
V7	D7/A	2AA	8r	.	8r	.	8r
.	.	.	8F#	.	8c	.	8d
.	.	.	8F#	.	8c	.	8d
.	.	.	8F#	.	8c	.	8d
=58	=58	=58	=58	=58	=58	=58	=58
i	Gm	2GG	8r	1r	8r	1r	8r
.	.	.	8G	.	8B-	.	8d
.	.	.	8G	.	8B-	.	8d
.	.	.	8G	.	8B-	.	8d
III	D	2D	8r	.	8r	.	8r
.	.	.	8F#	.	8A	.	8d
.	.	.	8F#	.	8A	.	8d
.	.	.	8F#	.	8A	.	8d
=59	=59	=59	=59	=59	=59	=59	=59
.	.	8r	8r	1r	1r	1r	2dd
VI7	E-7	8E-	8G	.	.	.	.
.	.	8E-	8G	.	.	.	.
.	.	8E-	8G	.	.	.	.
.	.	8r	8r	.	.	.	2g
.	.	8E-	8G	.	.	.	.
.	.	8E-	8G	.	.	.	.
.	.	8E-	8G	.	.	.	.
=60	=60	=60	=60	=60	=60	=60	=60
.	.	8r	8r	1r	1r	1r	2a
V	D	8D	8F#	.	.	.	.
.	.	8D	8F#	.	.	.	.
.	.	8D	8F#	.	.	.	.
.	.	8r	8r	.	.	.	2d
.	.	8D	8F#	.	.	.	.
.	.	8D	8F#	.	.	.	.
.	.	8D	8F#	.	.	.	.
=61	=61	=61	=61	=61	=61	=61	=61
.	.	8r	8r	1r	2ee-	1r	2e-
iv	Cm	8C	8G	.	.	.	.
.	.	8C	8G	.	.	.	.
.	.	8C	8G	.	.	.	.
.	.	8r	8r	.	2g	.	2b-
.	.	8c	8e-	.	.	.	.
.	.	8c	8e-	.	.	.	.
.	.	8c	8e-	.	.	.	.
=62	=62	=62	=62	=62	=62	=62	=62
VII	F/C	8r	8r	1r	2f	1r	2a
.	C	8c	8f	.	.	.	.
.	C	8c	8f	.	.	.	.
.	C	8c	8f	.	.	.	.
VII7	F7	8r	8r	.	2cc	.	2ee-
.	C	8F	8A	.	.	.	.
.	C	8F	8A	.	.	.	.
.	C	8F	8A	.	.	.	.
=63	=63	=63	=63	=63	=63	=63	=63
*B-:	*B-:	*B-:	*B-:	*B-:	*B-:	*B-:	*B-:
I	B-	4B-	4B-	1r	2b-	1r	16dd
.	.	.	.	.	.	.	16ff
.	.	.	.	.	.	.	16bb-
.	.	.	.	.	.	.	16ddd
.	.	2.r	2.r	.	.	.	8fff
.	.	.	.	.	.	.	8fff
ii	Cm/E-	.	.	.	2e-	.	8fff
.	.	.	.	.	.	.	8gg
.	.	.	.	.	.	.	8eee-
.	.	.	.	.	.	.	16ddd
.	.	.	.	.	.	.	16ccc
=64	=64	=64	=64	=64	=64	=64	=64
I	B-	1r	1r	1r	2f	1r	16bb-
.	.	.	.	.	.	.	16aa
.	.	.	.	.	.	.	16ddd
.	.	.	.	.	.	.	16ccc
.	.	.	.	.	.	.	16bb-
.	.	.	.	.	.	.	16aa
.	.	.	.	.	.	.	16gg
.	.	.	.	.	.	.	16ff
.	.	.	.	.	2B-	.	16ee-
.	.	.	.	.	.	.	16dd
.	.	.	.	.	.	.	16gg
.	.	.	.	.	.	.	16ff
.	.	.	.	.	.	.	16ee-
.	.	.	.	.	.	.	16dd
.	.	.	.	.	.	.	16cc
.	.	.	.	.	.	.	16b-
=65	=65	=65	=65	=65	=65	=65	=65
V7	F7	2F	1r	1r	1r	1r	16b-
.	.	.	.	.	.	.	16a
.	.	.	.	.	.	.	16cc
.	.	.	.	.	.	.	16b-
.	.	.	.	.	.	.	16a
.	.	.	.	.	.	.	16g
.	.	.	.	.	.	.	16f
.	.	.	.	.	.	.	16e-
I	B-	2BB-	.	.	.	.	16d
.	.	.	.	.	.	.	16f
.	.	.	.	.	.	.	16b-
.	.	.	.	.	.	.	16dd
.	.	.	.	.	.	.	16ff
.	.	.	.	.	.	.	16ee-
.	.	.	.	.	.	.	16dd
.	.	.	.	.	.	.	16cc
=66	=66	=66	=66	=66	=66	=66	=66
VI7m9	G7b9	1r	2g	1r	1r	1r	16cc
.	.	.	.	.	.	.	16b
.	.	.	.	.	.	.	16dd
.	.	.	.	.	.	.	16cc
.	.	.	.	.	.	.	16b
.	.	.	.	.	.	.	16a-
.	.	.	.	.	.	.	16g
.	.	.	.	.	.	.	16f
ii	Cm	.	2c	.	.	.	16e-
.	.	.	.	.	.	.	16g
.	.	.	.	.	.	.	16cc
.	.	.	.	.	.	.	16ee-
.	.	.	.	.	.	.	16gg
.	.	.	.	.	.	.	16ff
.	.	.	.	.	.	.	16ee-
.	.	.	.	.	.	.	16dd
=67	=67	=67	=67	=67	=67	=67	=67
VII7m9	A7B9	2AA	1r	1r	1r	1r	16dd
.	.	.	.	.	.	.	16cc#
.	.	.	.	.	.	.	16ee
.	.	.	.	.	.	.	16dd
.	.	.	.	.	.	.	16cc#
.	.	.	.	.	.	.	16b-
.	.	.	.	.	.	.	16a
.	.	.	.	.	.	.	16g
iii	Dm	2DD	.	.	.	.	16f
.	.	.	.	.	.	.	16a
.	.	.	.	.	.	.	16dd
.	.	.	.	.	.	.	16ff
.	.	.	.	.	.	.	16aa
.	.	.	.	.	.	.	16ff
.	.	.	.	.	.	.	16ee
.	.	.	.	.	.	.	16dd
=68	=68	=68	=68	=68	=68	=68	=68
.	.	1r	4r	1r	4g	1r	16bb-
.	.	.	.	.	.	.	16ff
.	.	.	.	.	.	.	16ee
.	.	.	.	.	.	.	16dd
II7	C7	.	4c	.	4c	.	16ee
.	.	.	.	.	.	.	16bb-
.	.	.	.	.	.	.	16aa
.	.	.	.	.	.	.	16gg#
V	F	.	4F	.	4f	.	16aa
.	.	.	.	.	.	.	16ee
.	.	.	.	.	.	.	16dd
.	.	.	.	.	.	.	16cc#
vi	Gm/B	.	4B-	.	4B-	.	16dd
.	.	.	.	.	.	.	16aa
.	.	.	.	.	.	.	16gg
.	.	.	.	.	.	.	16ff#
=69	=69	=69	=69	=69	=69	=69	=69
*d:	*d:	*d:	*d:	*d:	*d:	*d:	*d::
viio	C#dim/E	1r	4E	1r	4e	1r	16gg
.	.	.	.	.	.	.	16dd
.	.	.	.	.	.	.	16cc#
.	.	.	.	.	.	.	16b
IV	A7	.	4A	.	4A	.	16cc#
.	.	.	.	.	.	.	16gg
.	.	.	.	.	.	.	16ff
.	.	.	.	.	.	.	16ee
i	Dm	.	4D	.	8d	.	16ff
.	.	.	.	.	.	.	16dd
.	.	.	.	.	8g	.	16cc#
.	.	.	.	.	.	.	16ee
.	.	.	4r	.	8f	.	16dd
.	.	.	.	.	.	.	16ff
viio	C#dim	.	.	.	8c#	.	16ee
.	.	.	.	.	.	.	16gg
=70	=70	=70	=70	=70	=70	=70	=70
i	Dm	1r	1r	1r	8d	1r	16ff
.	.	.	.	.	.	.	16dd
.	.	.	.	.	8g	.	16cc#
.	.	.	.	.	.	.	16ee
.	.	.	.	.	8f	.	16dd
.	.	.	.	.	.	.	16ff
viio	C#dim	.	.	.	8c#	.	16ee
.	.	.	.	.	.	.	16gg
i	Dm	.	.	.	8d	.	16ff
.	.	.	.	.	.	.	16dd
.	.	.	.	.	8g	.	16cc#
.	.	.	.	.	.	.	16ee
.	.	.	.	.	8f	.	16dd
.	.	.	.	.	.	.	16ff
viio	C#dim	.	.	.	8c#	.	16ee
.	.	.	.	.	.	.	16gg
=71	=71	=71	=71	=71	=71	=71	=71
i	Dm	2D	2r	1r	4d	1r	16ff
.	.	.	.	.	.	.	16dd
.	.	.	.	.	.	.	16cc#
.	.	.	.	.	.	.	16dd
.	.	.	.	.	2f	.	16cc#
.	.	.	.	.	.	.	16dd
.	.	.	.	.	.	.	16cc#
.	.	.	.	.	.	.	16dd
II7m5m9	E7b5b9/B-	2BB-	2G#	.	.	.	16ff
.	.	.	.	.	.	.	16dd
.	.	.	.	.	.	.	16cc#
.	.	.	.	.	.	.	16dd
.	.	.	.	.	4d	.	16cc#
.	.	.	.	.	.	.	16dd
.	.	.	.	.	.	.	16cc#
.	.	.	.	.	.	.	16dd
=72	=72	=72	=72	=72	=72	=72	=72
v	A	4AA	4A	1r	4a	1r	2aa
.	.	4r	4r	.	2a	.	.
i	Dm	2D	2f	.	.	.	2dd
.	.	.	.	.	[4d	.	.
=73	=73	=73	=73	=73	=73	=73	=73
iiom7	Ehalfdim7	2GG	2B-	1r	4d]	1r	2ee
.	.	.	.	.	2e	.	.
v	Am	2AA	2c	.	.	.	2a
.	.	.	.	.	[4A	.	.
=74	=74	=74	=74	=74	=74	=74	=74
i	Dm	2DD	2F	1r	4A]	1r	2ff
.	.	.	.	.	2f	.	.
VI	B-	2B-	2d	.	.	.	2b-
.	.	.	.	.	[4B-	.	.
=75	=75	=75	=75	=75	=75	=75	=75
vii7	Cm7/E-	2E-	2G	1r	4B-]	1r	2cc
.	.	.	.	.	2c	.	.
III	F	2F	2A	.	.	.	2f
.	.	.	.	.	[4f	.	.
=76	=76	=76	=76	=76	=76	=76	=76
iv7	Gm7/B-	2BB-	4D	1r	4f]	1r	4dd
.	.	.	4d	.	2g	.	4g
vom7	Ahalfdim7/C	2C	4r	.	.	.	4ee-
.	.	.	4e-	.	4a	.	4a
=77	=77	=77	=77	=77	=77	=77	=77
vioD7	Bdim7	8D	8a-	1r	8b 8f	1r	2ff
.	.	8D	8a-	.	8f 8b	.	.
.	.	8D	8a-	.	8f 8b	.	.
.	.	8D	8a-	.	8b 8f	.	.
.	.	8D	8a-	.	8f 8b	.	2b
.	.	8D	8a-	.	8b 8f	.	.
.	.	8D	8a-	.	8b 8f	.	.
.	.	8D	8a-	.	8b 8f	.	.
=78	=78	=78	=78	=78	=78	=78	=78
ii	Cm/E-	8E-	8g	1r	8g 8cc	1r	2gg
.	.	8E-	8c	.	8g 8cc	.	.
.	.	8E-	8c	.	8cc 8g	.	.
.	.	8E-	8c	.	8cc 8g	.	.
.	.	8E-	8c	.	8cc 8g	.	2cc
.	.	8E-	8c	.	8cc 8g	.	.
.	.	8E-	8c	.	8cc 8g	.	.
.	.	8E-	8c	.	8cc 8g	.	.
=79	=79	=79	=79	=79	=79	=79	=79
II	C/E	8E	8g	1r	4cc 4g	1r	2ccc
.	.	8e	8cc	.	.	.	.
.	.	8e	8cc	.	2.r	.	.
.	.	8e	8cc	.	.	.	.
II+	C+/E-	8e	8cc	.	.	.	2gg#
.	.	8e	8cc	.	.	.	.
.	.	8e	8cc	.	.	.	.
.	.	8e	8cc	.	.	.	.
=80	=80	=80	=80	=80	=80	=80	=80
III	F	2f	8f	1r	2ff	1r	[1aa
.	.	.	8f	.	.	.	.
.	.	.	8f	.	.	.	.
.	.	.	8f	.	.	.	.
III+	F+	2r	8f	.	2cc#	.	.
.	.	.	8f	.	.	.	.
.	.	.	8f	.	.	.	.
.	.	.	8f	.	.	.	.
=81	=81	=81	=81	=81	=81	=81	=81
i	Dm/F	1r	8f	1r	2dd	1r	2aa]
.	.	.	8f	.	.	.	.
.	.	.	8f	.	.	.	.
.	.	.	8f	.	.	.	.
VI#7m5	B7b5	.	8f	.	2a	.	2dd#
.	.	.	8f	.	.	.	.
.	.	.	8f	.	.	.	.
.	.	.	8f	.	.	.	.
=82	=82	=82	=82	=82	=82	=82	=82
II	E	1r	8e	1r	2g#	1r	1ee
.	.	.	8e	.	.	.	.
.	.	.	8e	.	.	.	.
.	.	.	8e	.	.	.	.
.	.	.	8e	.	2b	.	.
.	.	.	8e	.	.	.	.
.	.	.	8e	.	.	.	.
.	.	.	8e	.	.	.	.
=83	=83	=83	=83	=83	=83	=83	=83
iiom7	Ehalfdim7	8EE	2dd	1r	1b 1g#	1r	2ff
.	.	8E	.	.	.	.	.
.	.	8E	.	.	.	.	.
.	.	8E	.	.	.	.	.
.	.	8E	2e	.	.	.	2b
.	.	8E	.	.	.	.	.
.	.	8E	.	.	.	.	.
.	.	8E	.	.	.	.	.
=84	=84	=84	=84	=84	=84	=84	=84
i#oD7	D#dim7	8EE	2d#	1r	2a	1r	2cc
.	.	8E	.	.	.	.	.
.	.	8E	.	.	.	.	.
.	.	8E	.	.	.	.	.
.	.	8E	2a	.	2d#	.	2f#
.	.	8E	.	.	.	.	.
.	.	8E	.	.	.	.	.
.	.	8E	.	.	.	.	.
=85	=85	=85	=85	=85	=85	=85	=85
II	E	2EE	8g#	1r	8e	1r	2g#
.	.	.	8G#	.	8e	.	.
.	.	.	8G#	.	8e	.	.
.	.	.	8G#	.	8e	.	.
II7	E7/B	2BB	8r	.	8r	.	8r
.	.	.	8G#	.	8e	.	8dd
.	.	.	8G#	.	8e	.	8dd
.	.	.	8G#	.	8e	.	8dd
=86	=86	=86	=86	=86	=86	=86	=86
III7	F7	2FF	8r	1r	8r	1r	16cc
.	.	.	.	.	.	.	16dd
.	.	.	8A	.	8e	.	16cc
.	.	.	.	.	.	.	16b
.	.	.	8A	.	8e	.	4a
.	.	.	8A	.	8e	.	.
i#oD7	D#dim7	2C	8r	.	8r	.	8r
.	.	.	8A	.	8d#	.	16g#
.	.	.	.	.	.	.	16a
.	.	.	8A	.	8d#	.	16g#
.	.	.	.	.	.	.	16a
.	.	.	8A	.	8d#	.	16g#
.	.	.	.	.	.	.	16a
=87	=87	=87	=87	=87	=87	=87	=87
II	E	2EE	8r	1r	8r	1r	16b
.	.	.	.	.	.	.	16a
.	.	.	8G#	.	8e	.	16b
.	.	.	.	.	.	.	16cc
.	.	.	8G#	.	8e	.	4b
.	.	.	8G#	.	8e	.	.
II7	E7/B	2BB	8r	.	8r	.	8r
.	.	.	8G#	.	8e	.	8dd
.	.	.	8G#	.	8e	.	8dd
.	.	.	8G#	.	8e	.	8dd
=88	=88	=88	=88	=88	=88	=88	=88
III7	F7	2FF	8r	1r	8r	1r	16cc
.	.	.	.	.	.	.	16dd
.	.	.	8A	.	8e	.	16cc
.	.	.	.	.	.	.	16b
.	.	.	8A	.	8e	.	4a
.	.	.	8A	.	8e	.	.
i#oD7	D#dim7	2C	8r	.	8r	.	8r
.	.	.	8A	.	8d#	.	16g#
.	.	.	.	.	.	.	16a
.	.	.	8A	.	8d#	.	16g#
.	.	.	.	.	.	.	16a
.	.	.	8A	.	8d#	.	16g#
.	.	.	.	.	.	.	16a
=89	=89	=89	=89	=89	=89	=89	=89
II	E	2EE	8r	1r	8r	1r	2b
.	.	.	8G#	.	8e	.	.
.	.	.	8G#	.	8e	.	.
.	.	.	8G#	.	8e	.	.
.	.	2BB	8r	.	8r	.	2e
.	.	.	8G#	.	8e	.	.
.	.	.	8G#	.	8e	.	.
.	.	.	8G#	.	8e	.	.
=90	=90	=90	=90	=90	=90	=90	=90
.	.	2EE	8r	1r	8r	1r	2b
.	.	.	8G#	.	8e	.	.
.	.	.	8G#	.	8e	.	.
.	.	.	8G#	.	8e	.	.
.	.	2BB	8r	.	8r	.	2e
.	.	.	8G#	.	8e	.	.
.	.	.	8G#	.	8e	.	.
.	.	.	8G#	.	8e	.	.
=91	=91	=91	=91	=91	=91	=91	=91
.	.	4EE	8r	1r	8r	1r	4b
.	.	.	8G#	.	8e	.	.
.	.	4BB	8r	.	8r	.	4e
.	.	.	8G#	.	8e	.	.
.	.	4EE	8r	.	8r	.	4b
.	.	.	8G#	.	8e	.	.
.	.	4BB	8r	.	8r	.	4e
.	.	.	8G#	.	8e	.	.
=92	=92	=92	=92	=92	=92	=92	=92
.	.	1EE	4r	1r	4r	1r	2b
.	.	.	4G#	.	4e	.	.
.	.	.	4G#	.	4e	.	2e
.	.	.	4G#	.	4e	.	.
=93	=93	=93	=93	=93	=93	=93	=93
*C:	*C:	*C:	*C:	*C:	*C:	*C:	*C:
I	C	8CC	2E	[1G	1e	1r	2g
.	.	8CC	.	.	.	.	.
.	.	8CC	.	.	.	.	.
.	.	8CC	.	.	.	.	.
V	G7/C	8CC	4G	.	.	.	2c
.	.	8CC	.	.	.	.	.
.	.	8CC	4c	.	.	.	.
.	.	8CC	.	.	.	.	.
=94	=94	=94	=94	=94	=94	=94	=94
.	.	8CC	2B	1G]	1f	1r	2d
.	.	8CC	.	.	.	.	.
.	.	8CC	.	.	.	.	.
.	.	8CC	.	.	.	.	.
.	.	8CC	2B 2d	.	.	.	2G
.	.	8CC	.	.	.	.	.
.	.	8CC	.	.	.	.	.
.	.	8CC	.	.	.	.	.
=95	=95	=95	=95	=95	=95	=95	=95
I	C	8CC	1G 1e	2G	2e	1r	16e
.	.	.	.	.	.	.	16g
.	.	8C	.	.	.	.	16cc
.	.	.	.	.	.	.	16ee
.	.	8C	.	.	.	.	8gg
.	.	8C	.	.	.	.	8gg
.	.	8C	.	2r	16e	.	4gg
.	.	.	.	.	16g	.	.
.	.	8C	.	.	16cc	.	.
.	.	.	.	.	16ee	.	.
.	.	8C	.	.	8gg	.	4r
.	.	8C	.	.	8gg	.	.
=96	=96	=96	=96	=96	=96	=96	=96
V	G	8BB	1G 1d	1r	4gg	1r	16d
.	.	.	.	.	.	.	16g
.	.	8BB	.	.	.	.	16b
.	.	.	.	.	.	.	16dd
.	.	8BB	.	.	4r	.	8gg
.	.	8BB	.	.	.	.	8gg
.	.	8BB	.	.	16d	.	4gg
.	.	.	.	.	16g	.	.
.	.	8BB	.	.	16b	.	.
.	.	.	.	.	16dd	.	.
.	.	8BB	.	.	8gg	.	4r
.	.	8BB	.	.	8gg	.	.
=97	=97	=97	=97	=97	=97	=97	=97
v	Gm/B-	8BB-	1G 1d	1r	4gg	1r	16d
.	.	.	.	.	.	.	16g
.	.	8BB-	.	.	.	.	16b-
.	.	.	.	.	.	.	16dd
.	.	8BB-	.	.	4r	.	8gg
.	.	8BB-	.	.	.	.	8gg
.	.	8BB-	.	.	16d	.	4gg
.	.	.	.	.	16g	.	.
.	.	8BB-	.	.	16b-	.	.
.	.	.	.	.	16dd	.	.
.	.	8BB-	.	.	8gg	.	4r
.	.	8BB-	.	.	8gg	.	.
=98	=98	=98	=98	=98	=98	=98	=98
V7/vii	A7	8AA	8c#	1r	8gg	1r	8gg
.	.	8r	8r	.	8r	.	8r
.	.	8AA	8e	.	8ee	.	8a 8ccc#
.	.	8r	8r	.	8r	.	8r
.	.	4AA	4A 4g	.	4cc# 4e	.	4eee 4a
.	.	4r	4r	.	4r	.	4r
=99	=99	=99	=99	=99	=99	=99	=99
*d:	*d:	*d:	*d:	*d:	*d:	*d:	*d:
i	Dm	8r	8r	1r	8r	1r	2a
.	.	8D	8F	.	8A	.	.
.	.	8D	8F	.	8A	.	.
.	.	8D	8F	.	8A	.	.
.	.	8r	8r	.	8r	.	2d
.	.	8D	8F	.	8A	.	.
.	.	8D	8F	.	8A	.	.
.	.	8D	8F	.	8A	.	.
=100	=100	=100	=100	=100	=100	=100	=100
iiom7	Ehalfdim7	8r	8r	1r	8r	1r	2e
.	.	8D	8G	.	8B-	.	.
.	.	8D	8G	.	8B-	.	.
.	.	8D	8G	.	8B-	.	.
V7	A7/E	8r	8r	.	8r	.	2A
.	.	8E	8G	.	8c#	.	.
.	.	8E	8G	.	8c#	.	.
.	.	8E	8G	.	8c#	.	.
=101	=101	=101	=101	=101	=101	=101	=101
i	Dm/F	8F	2..A	1r	8d	1r	8d
.	.	8E	.	.	8c#	.	8c#
.	.	8F	.	.	8d	.	8d
.	.	8C#	.	.	8e	.	8e
.	.	4D	.	.	4d	.	4f
V7	A7	4AA	.	.	8c#	.	8e
.	.	.	8C#	.	16a	.	8a
.	.	.	.	.	16g	.	.
=102	=102	=102	=102	=102	=102	=102	=102
VI	B-	2BB-	8D	1r	16f	1r	4dd
.	.	.	.	.	16g	.	.
.	.	.	8E	.	16f	.	.
.	.	.	.	.	16e	.	.
.	.	.	8F	.	8d	.	16cc
.	.	.	.	.	.	.	16b-
.	.	.	8D	.	8d	.	16a
.	.	.	.	.	.	.	16g#
V7	A7	4AA	4E	.	4c#	.	8a
.	.	.	.	.	.	.	16b
.	.	.	.	.	.	.	16cc#
.	.	4r	4r	.	4r	.	16dd
.	.	.	.	.	.	.	16ee
.	.	.	.	.	.	.	16ff
.	.	.	.	.	.	.	16gg
=103	=103	=103	=103	=103	=103	=103	=103
i	Dm	8r	8r	1r	8r	1r	2aa
.	.	8d	8f	.	8a	.	.
.	.	8d	8f	.	8a	.	.
.	.	8d	8f	.	8a	.	.
.	.	8r	8r	.	8r	.	2dd
.	.	8d	8f	.	8a	.	.
.	.	8d	8f	.	8a	.	.
.	.	8d	8f	.	8a	.	.
=104	=104	=104	=104	=104	=104	=104	=104
iiom7	Ehalfdim7	8r	8r	1r	8r	1r	2ee
.	.	8d	8g	.	8b-	.	.
.	.	8d	8g	.	8b-	.	.
.	.	8d	8g	.	8b-	.	.
V7	A7/E	8r	8r	.	8r	.	2a
.	.	8e	8g	.	8cc#	.	.
.	.	8e	8g	.	8cc#	.	.
.	.	8e	8g	.	8cc#	.	.
=105	=105	=105	=105	=105	=105	=105	=105
i	Dm/F	8f	[2a	1r	4dd	1r	8dd
.	.	8e	.	.	.	.	8cc#
.	.	8f	.	.	8r	.	8dd
V	A	8c#	.	.	16a	.	8ee
.	.	.	.	.	16ee	.	.
.	.	4d	4a]	.	4dd	.	4ff
.	.	8A	4r	.	8cc#	.	8ee
.	.	8r	.	.	8dd	.	8ff
=106	=106	=106	=106	=106	=106	=106	=106
.	.	1r	2..r	1r	4ee	1r	4gg
i	Dm	.	.	.	8dd	.	8ff
.	.	.	.	.	8ff	.	8aa
.	.	.	.	.	4gg	.	4bb-
.	.	.	.	.	8ff	.	8aa
.	.	.	8ff	.	8aa	.	8ddd
=107	=107	=107	=107	=107	=107	=107	=107
viio	C#dim/E	1r	4ee	1r	4gg	1r	4ccc#
.	.	.	8r	.	8r	.	8r
VI	B-/D	.	8dd	.	8ff	.	8bb-
V	A/C#	.	4cc#	.	4ee	.	4aa
.	.	.	8r	.	8r	.	8r
VI	B-/D	.	8d	.	8f	.	8b-
=108	=108	=108	=108	=108	=108	=108	=108
V	A/C#	2r	4c#	1r	4e	1r	4a
.	.	.	4r	.	2.r	.	4r
VI	B-/D	2D	2F	.	.	.	2B-
=109	=109	=109	=109	=109	=109	=109	=109
V	A/C#	2C#	2E	1r	1r	1r	2A
.	.	4.r	4.r	.	.	.	4.r
I7	D7/C	8C	8d	.	.	.	8f#
=110	=110	=110	=110	=110	=110	=110	=110
*g:	*g:	*g:	*g:	*g:	*g:	*g:	*g:
i	Gm/B-	8BB-	4.d	1r	4.r	1r	8g
.	.	8AA	.	.	.	.	8f#
.	.	8BB-	.	.	.	.	8g
V7	D7/F#	8FF#	8c	.	8d	.	8a
i	Gm	4.GG	8B-	.	8d	.	4.b-
.	.	.	8A	.	8c	.	.
.	.	.	8B-	.	8d	.	.
IV	C7	8C	8G	.	8e	.	8b-
=111	=111	=111	=111	=111	=111	=111	=111
VII	F	4FF	4F	1r	4.f	1r	8a
.	.	.	.	.	.	.	8g
.	.	2r	8r	.	.	.	8a
I7	G7	.	8G	.	8f	.	8b
.	.	.	4C	.	8e	.	4.cc
.	.	.	.	.	8d	.	.
.	.	8r	4r	.	8e	.	.
V7	D7	8D	.	.	8f#	.	8cc
=112	=112	=112	=112	=112	=112	=112	=112
i	Gm	4GG	4.r	1r	4.g	1r	8b-
.	.	.	.	.	.	.	8a
.	.	2r	.	.	.	.	8b-
.	.	.	8A	.	8g	.	8cc#
.	.	.	4D	.	8f	.	4.dd
.	.	.	.	.	8e	.	.
.	.	8r	8r	.	8f	.	.
.	.	8BB-	8d	.	8g#	.	8dd
=113	=113	=113	=113	=113	=113	=113	=113
II7	A7	8AA	4e	1r	4a	1r	16cc#
.	.	.	.	.	.	.	16dd
.	.	8AA	.	.	.	.	16ee
.	.	.	.	.	.	.	16ff
.	.	8AA	2g	.	2cc# 2e	.	16ee
.	.	.	.	.	.	.	16ff
.	.	8AA	.	.	.	.	16gg
.	.	.	.	.	.	.	16aa
.	.	8AA	.	.	.	.	16bb-
.	.	.	.	.	.	.	16aa
.	.	8AA	.	.	.	.	16bb-
.	.	.	.	.	.	.	16aa
.	.	8AA	4g	.	4cc# 4e	.	16bb-
.	.	.	.	.	.	.	16gg
.	.	8AA	.	.	.	.	16ff
.	.	.	.	.	.	.	16ee
=114	=114	=114	=114	=114	=114	=114	=114
i	Dm	8AA	4f	1r	4f 4dd	1r	16dd
.	.	.	.	.	.	.	16ee
.	.	8AA	.	.	.	.	16ff
.	.	.	.	.	.	.	16gg
.	.	8AA	4a	.	2dd 2f	.	16ff
.	.	.	.	.	.	.	16gg
.	.	8AA	.	.	.	.	16aa
.	.	.	.	.	.	.	16bb-
.	.	8AA	4f	.	.	.	16aa
.	.	.	.	.	.	.	16ccc#
.	.	8AA	.	.	.	.	16ddd
.	.	.	.	.	.	.	16ccc#
.	.	8AA	4d	.	4f 4dd	.	16ddd
.	.	.	.	.	.	.	16fff
.	.	8AA	.	.	.	.	16eee
.	.	.	.	.	.	.	16ddd
=115	=115	=115	=115	=115	=115	=115	=115
V7	A7	8AA	4b-	1r	4ee 4g	1r	16ccc#
.	.	.	.	.	.	.	16ddd
.	.	8AA	.	.	.	.	16ccc#
.	.	.	.	.	.	.	16ddd
.	.	8AA	4a	.	4f 4dd	.	16eee
.	.	.	.	.	.	.	16fff
.	.	8AA	.	.	.	.	16eee
.	.	.	.	.	.	.	16fff
.	.	4AA	4g	.	4e 4cc#	.	4ggg
.	.	8r	8r	.	8r	.	8r
.	.	[8D	[8dd	.	[8aa	.	[8fff
=116	=116	=116	=116	=116	=116	=116	=116
*d:	*d:	*d:	*d:	*d:	*d:	*d:	*d:
i	Dm	4D]	4dd]	1r	4aa]	1r	4fff]
.	.	8r	8r	.	8r	.	8r
iio	Edim/G	[8G	[8b-	.	[8gg	.	[8eee
.	.	4G]	4b-]	.	4gg]	.	4eee]
.	.	8r	8r	.	8r	.	8r
.	.	[8A	[8a	.	[8ff	.	[8ddd
=117	=117	=117	=117	=117	=117	=117	=117
i	Dm/A	4A]	4a]	1r	4ff]	1r	4ddd]
.	.	8r	8r	.	8r	.	8r
V7	A7	[8AA	[8g	.	[8ee	.	[8ccc#
.	.	4AA]	4g]	.	4ee]	.	4ccc#]
.	.	4r	4r	.	4r	.	8r
.	.	.	.	.	.	.	8ddd
=118	=118	=118	=118	=118	=118	=118	=118
i	Dm	8D	4.f	1r	4.a	1r	4.dd
.	.	8D	.	.	.	.	.
.	.	8D	.	.	.	.	.
.	.	8D	16g	.	16b-	.	16ee
.	.	.	16f	.	16a	.	16dd
VII	C#/D	8D	4g	.	4b-	.	16cc#
.	.	.	.	.	.	.	16dd
.	.	8D	.	.	.	.	16ee
.	.	.	.	.	.	.	16ff
.	.	8D	4c#	.	4e	.	16gg
.	.	.	.	.	.	.	16ee
.	.	8D	.	.	.	.	16gg
.	.	.	.	.	.	.	16ee
=119	=119	=119	=119	=119	=119	=119	=119
i	Dm	8D	8d	1r	8f	1r	4.dd
.	.	8D	4f	.	4a	.	.
.	.	8D	.	.	.	.	.
.	.	8D	16g	.	16b-	.	16ee
.	.	.	16f	.	16a	.	16dd
VII	C#/D	8D	8g	.	8b-	.	16cc#
.	.	.	.	.	.	.	16dd
.	r	8D	8g	.	8b-	.	16ee
.	.	.	.	.	.	.	16ff
.	.	8D	8c#	.	8e	.	16gg
.	.	.	.	.	.	.	16ee
.	.	8D	8c#	.	8e	.	16gg
.	.	.	.	.	.	.	16ee
=120	=120	=120	=120	=120	=120	=120	=120
i	Dm	8D	4d	1r	8f	1r	8dd
.	.	8d	.	.	4a	.	8ff
V7	A7	8c#	8r	.	.	.	8ee
.	.	8A	8g	.	8cc#	.	8aa
.	.	8r	8f	.	8dd	.	8dd
.	.	8d	8d	.	4a	.	8ff
.	.	8c#	8r	.	.	.	8ee
.	.	8A	8e	.	8cc#	.	8aa
=121	=121	=121	=121	=121	=121	=121	=121
i	Dm	4d	4f	1r	4dd	1r	8ff
.	.	.	.	.	.	.	8aa
.	.	16F#	4cc	.	2dd	.	16dd 16aa
.	.	16D	.	.	.	.	16ddd
.	.	16F#	.	.	.	.	16aa 16dd
.	.	16D	.	.	.	.	16ddd
iv	Gm	16G	4b-	.	.	.	8dd 8bb-
.	.	16D	.	.	.	.	.
.	.	16G	.	.	.	.	8ddd
.	.	16D	.	.	.	.	.
V7/iv	D7	16F#	4cc	.	4dd	.	16dd 16aa
.	.	16D	.	.	.	.	16ddd
.	.	16F#	.	.	.	.	16aa 16dd
.	.	16D	.	.	.	.	16ddd
=122	=122	=122	=122	=122	=122	=122	=122
*g:	*g:	*g:	*g:	*g:	*g:	*g:	*g:
i	Gm	2G	2b-	1r	[1dd	1r	2bb-
ii	Am	2A	2cc	.	.	.	2aa
=123	=123	=123	=123	=123	=123	=123	=123
i#o	G#dim/B	2B	2dd	1r	2dd]	1r	2gg#
II7	A7/C#	4c#	4a	.	4ee	.	4gg
.	.	8r	8r	.	8r	.	8r
.	.	[8d	[8a	.	[8dd	.	[8ff
=124	=124	=124	=124	=124	=124	=124	=124
*d:	*d:	*d:	*d:	*d:	*d:	*d:	*d:
i	Dm	4d]	4a]	1r	4dd]	1r	4ff]
.	.	8r	8r	.	8r	.	8r
iio	Edim/G	[8G	[8g	.	[8b-	.	[8ee
.	.	4G]	4g]	.	4b-]	.	4ee]
.	.	8r	8r	.	8r	.	8r
.	.	[8A	[8f	.	[8a	.	[8dd
=125	=125	=125	=125	=125	=125	=125	=125
i	Dm	4A]	4f]	1r	4a]	1r	4dd]
.	.	8r	8r	.	8r	.	8r
V7	A7	[8AA	[8e	.	[8g	.	[8cc#
.	.	4AA]	4e]	.	4g]	.	4cc#]
.	.	8r	8r	.	8r	.	8r
.	.	8AA	8e	.	8gg	.	8cc#
=126	=126	=126	=126	=126	=126	=126	=126
*B-:	*B-:	*B-:	*B-:	*B-:	*B-:	*B-:	*B-:
i	B-	8BB-	2d	1r	2ff	1r	16dd
.	.	.	.	.	.	.	16ff
.	.	8BB-	.	.	.	.	16bb-
.	.	.	.	.	.	.	16ccc
.	.	8BB-	.	.	.	.	8ddd
.	.	8BB-	.	.	.	.	8ddd
.	.	8BB-	16d	.	2b-	.	4ddd
.	.	.	16f	.	.	.	.
.	.	8BB-	16b-	.	.	.	.
.	.	.	16cc	.	.	.	.
.	.	8BB-	8dd	.	.	.	4r
.	.	8BB-	8dd	.	.	.	.
=127	=127	=127	=127	=127	=127	=127	=127
V7	F7/A	8AA	4ee-	1r	2cc	1r	16ee-
.	.	.	.	.	.	.	16ff
.	.	8AA	.	.	.	.	16aa
.	.	.	.	.	.	.	16ccc
.	.	8AA	4r	.	.	.	8eee-
.	.	8AA	.	.	.	.	8eee-
.	.	8AA	16e-	.	2f	.	4eee-
.	.	.	16f	.	.	.	.
.	.	8AA	16a	.	.	.	.
.	.	.	16cc	.	.	.	.
.	.	8AA	8ee-	.	.	.	4r
.	.	8AA	8cc	.	.	.	.
=128	=128	=128	=128	=128	=128	=128	=128
i	B-	8BB-	4dd	1r	2ff	1r	16dd
.	.	.	.	.	.	.	16ff
.	.	8BB-	.	.	.	.	16bb-
.	.	.	.	.	.	.	16ccc
.	.	8BB-	4r	.	.	.	8ddd
.	.	8BB-	.	.	.	.	8ddd
.	.	8BB-	16d	.	2b-	.	4ddd
.	.	.	16f	.	.	.	.
.	.	8BB-	16b-	.	.	.	.
.	.	.	16cc	.	.	.	.
.	.	8BB-	8dd	.	.	.	4r
.	.	8BB-	8dd	.	.	.	.
=129	=129	=129	=129	=129	=129	=129	=129
V7	F7/A	8AA	4ee-	1r	2cc	1r	16ee-
.	.	.	.	.	.	.	16ff
.	.	8AA	.	.	.	.	16aa
.	.	.	.	.	.	.	16ccc
.	.	8AA	4r	.	.	.	8eee-
.	.	8AA	.	.	.	.	8eee-
.	.	4AA	4c 4e-	.	4f	.	4eee-
.	.	4r	4r	.	4r	.	4r
=130	=130	=130	=130	=130	=130	=130	=130
III7	D7/F#	8r	8r	1r	8r	1r	2ddd
.	.	8f#	8a	.	8cc	.	.
.	.	8f#	8a	.	8cc	.	.
.	.	8f#	8a	.	8cc	.	.
.	.	8r	8r	.	8r	.	2gg
vi	Gm	8g	8b-	.	8b-	.	.
.	.	8g	8b-	.	8b-	.	.
.	.	8g	8b-	.	8b-	.	.
=131	=131	=131	=131	=131	=131	=131	=131
V7	A7/G	8r	8r	1r	8r	1r	2aa
.	.	8e	8g	.	8cc#	.	.
.	.	8e	8g	.	8cc#	.	.
.	.	8e	8g	.	8cc#	.	.
.	.	8r	8r	.	8r	.	2dd
i/iii	Dm	8d	8f	.	8dd	.	.
.	.	8d	8f	.	8dd	.	.
.	.	8d	8f	.	8dd	.	.
=132	=132	=132	=132	=132	=132	=132	=132
*d:	*d:	*d:	*d:	*d:	*d:	*d:	*d:
V	A	2A	8r	1r	8r	1r	8r
.	.	.	8a	.	8cc#	.	8ee
.	.	.	8a	.	8cc#	.	8ee
.	.	.	8a	.	8cc#	.	8ee
i	Dm	2D	8r	.	8r	.	8r
.	.	.	8a	.	8dd	.	8ff
.	.	.	8a	.	8dd	.	8ff
.	.	.	8a	.	8dd	.	8ff
=133	=133	=133	=133	=133	=133	=133	=133
II7	E7	2E	8r	1r	8r	1r	8r
.	.	.	8dd	.	8b	.	8gg#
.	.	.	8dd	.	8b	.	8gg#
.	.	.	8dd	.	8b	.	8gg#
V	A	2AA	8r	.	8r	.	8r
.	.	.	8ee	.	8cc#	.	8aa
.	.	.	8ee	.	8cc#	.	8aa
.	.	.	8ee	.	8cc#	.	8aa
=134	=134	=134	=134	=134	=134	=134	=134
V7	A7	2D	8r	1r	8r	1r	8r
.	.	.	8dd	.	8ff	.	8aa
.	.	.	8dd	.	8ff	.	8aa
.	.	.	8dd	.	8ff	.	8aa
i	Dm	2GG	8r	.	8r	.	8r
.	.	.	8dd	.	8gg	.	8bb-
.	.	.	8dd	.	8gg	.	8bb-
.	.	.	8dd	.	8gg	.	8bb-
=135	=135	=135	=135	=135	=135	=135	=135
V	A	2AA	8r	1r	8r	1r	8r
.	.	.	8g	.	8ee	.	8ccc#
.	.	.	8g	.	8ee	.	8ccc#
.	.	.	8g	.	8ee	.	8ccc#
i	Dm	2DD	4f	.	4ff	.	4ddd
.	.	.	4r	.	4r	.	4r
=136	=136	=136	=136	=136	=136	=136	=136
V7	A7	8r	8r	1r	8r	1r	8r
.	.	8A	8a	.	8ccc#	.	8eee
.	.	8A	8a	.	8ccc#	.	8eee
.	.	8A	8a	.	8ccc#	.	8eee
i	Dm	4d	4a	.	4ddd	.	4fff
.	.	4r	4r	.	4r	.	4r
=137	=137	=137	=137	=137	=137	=137	=137
V	A7	4r	4r	1r	4r	1r	4r
.	E	4AA	4G	.	4A 4e	.	4c#
.	A	4AA	4G	.	4e 4A	.	4c#
.	A	4AA	4G	.	4e 4A	.	4c#
=138	=138	=138	=138	=138	=138	=138	=138
i	Dm	1DD	1F	1r	1d 1A	1r	1d
=139	=139	=139	=139	=139	=139	=139	=139
*B-:	*B-:	*B-:	*B-:	*B-:	*B-:	*B-:	*B-:
III7m9	D7b9	2.FF#	2.D	1r	2.d 2.A	1r	2.c
.	.	8r	8r	.	8r	.	8r
.	.	8r	8r	.	[8d	.	8r
=140	=140	=140	=140	=140	=140	=140	=140
.	.	8r	8r	1r	4d]	1r	16dd
.	.	.	.	.	.	.	16ee-
.	.	[8F#	[8A	.	.	.	16dd
.	.	.	.	.	.	.	16cc#
.	.	4F#]	4A]	.	8r	.	16dd
.	.	.	.	.	.	.	16ee-
.	.	.	.	.	[8d	.	16dd
.	.	.	.	.	.	.	16cc#
.	.	8r	8r	.	4d]	.	16dd
.	.	.	.	.	.	.	16gg
vi	Gm	[8G	[8B-	.	.	.	16bb-
.	.	.	.	.	.	.	16aa
.	.	4G]	4B-]	.	8r	.	16gg
.	.	.	.	.	.	.	16ff
.	.	.	.	.	[8c	.	16ee
.	.	.	.	.	.	.	16dd
=141	=141	=141	=141	=141	=141	=141	=141
.	.	8r	8r	1r	4c]	1r	16cc
.	.	.	.	.	.	.	16dd
.	.	[8E	[8G	.	.	.	16cc
.	.	.	.	.	.	.	16b
II7	C7/F	4E]	4G]	.	8r	.	16cc
.	.	.	.	.	.	.	16dd
.	.	.	.	.	[8c	.	16cc
.	.	.	.	.	.	.	16b
.	.	8r	8r	.	4c]	.	16cc
.	.	.	.	.	.	.	16ff
.	.	[8F	[8A	.	.	.	16aa
.	.	.	.	.	.	.	16gg
V	F	4F]	4A]	.	8r	.	16ff
.	.	.	.	.	.	.	16ee
.	.	.	.	.	[8B-	.	16dd
.	.	.	.	.	.	.	16cc
=142	=142	=142	=142	=142	=142	=142	=142
I	B-/D	8r	8D	1r	4B-]	1r	16b-
.	.	.	.	.	.	.	16aa
.	.	8D	8r	.	.	.	16gg
.	.	.	.	.	.	.	16ff
.	.	8r	8E	.	8r	.	16ee
.	.	.	.	.	.	.	16dd
.	.	8E	8r	.	16g	.	16cc
.	.	.	.	.	16f	.	16b-
.	.	8r	8C#	.	8e	.	16a
.	.	.	.	.	.	.	16gg
.	.	8C#	8r	.	8r	.	16ff
.	.	.	.	.	.	.	16ee
.	.	8r	8D	.	8f	.	16dd
.	.	.	.	.	.	.	16cc
.	.	16D	8r	.	8r	.	16b-
.	.	16C	.	.	.	.	16a
=143	=143	=143	=143	=143	=143	=143	=143
VI7	E7b5b9/B-	16BB-	2G#	1r	2d	1r	8g#
.	.	16C	.	.	.	.	.
.	.	16BB-	.	.	.	.	4dd
.	.	16AA	.	.	.	.	.
.	.	16BB-	.	.	.	.	.
.	.	16C	.	.	.	.	.
.	.	16BB-	.	.	.	.	4ff
.	.	16AA	.	.	.	.	.
.	.	16BB-	8d	.	2g#	.	.
.	.	16C	.	.	.	.	.
.	.	16BB-	4e	.	.	.	4ee
.	.	16AA	.	.	.	.	.
.	.	8BB-	.	.	.	.	.
.	.	8BB-	16f	.	.	.	8dd
.	.	.	16d	.	.	.	.
=144	=144	=144	=144	=144	=144	=144	=144
VII	A	4AA	8e	1r	16a	1r	8cc#
.	.	.	.	.	16e	.	.
.	.	.	8c#	.	16d	.	4aa
.	.	.	.	.	16e	.	.
.	.	4AA	16A	.	16c#	.	.
.	.	.	16B	.	16d	.	.
.	.	.	16A	.	16c#	.	4aa
.	.	.	16c#	.	16e	.	.
.	.	4AA	16B	.	16d	.	.
.	.	.	16c#	.	16e	.	.
.	.	.	16B	.	16d	.	4aa
.	.	.	16d	.	16f	.	.
.	.	4AA	16c#	.	16e	.	.
.	.	.	16d	.	16f	.	.
.	.	.	16c#	.	16e	.	8aa
.	.	.	16e	.	16g	.	.
=145	=145	=145	=145	=145	=145	=145	=145
I7	B-7	[1AA	8d	1r	8f	1r	16bb-
.	.	.	.	.	.	.	16ccc
.	.	.	8d	.	8f	.	16bb-
.	.	.	.	.	.	.	16aa
.	.	.	8r	.	8r	.	16bb-
.	.	.	.	.	.	.	16ccc
.	.	.	8d	.	8f	.	16bb-
.	.	.	.	.	.	.	16aa
.	.	.	16e	.	16g	.	8bb-
.	.	.	16f	.	16a	.	.
.	.	.	16e	.	16g	.	8bb-
.	.	.	16d	.	16f#	.	.
.	.	.	16e	.	16g	.	8r
.	.	.	16f	.	16a	.	.
.	.	.	16e	.	16g	.	8bb-
.	.	.	16d	.	16f	.	.
=146	=146	=146	=146	=146	=146	=146	=146
VII	A	1AA_	8c#	1r	8e	1r	16aa
.	.	.	.	.	.	.	16bb-
.	.	.	8c#	.	8e	.	16aa
.	.	.	.	.	.	.	16gg#
.	.	.	8r	.	8r	.	16aa
.	.	.	.	.	.	.	16bb-
.	.	.	8c#	.	8e	.	16aa
.	.	.	.	.	.	.	16gg#
.	.	.	16d	.	16f	.	8aa
.	.	.	16e	.	16g	.	.
.	.	.	16d	.	16f	.	8aa
.	.	.	16c#	.	16e	.	.
.	.	.	16d	.	16f	.	8r
.	.	.	16e	.	16g	.	.
.	.	.	16d	.	16f	.	8aa
.	.	.	16c	.	16e	.	.
=147	=147	=147	=147	=147	=147	=147	=147
vio	G#dim	1AA]	2B	1r	2d	1r	8gg#
.	.	.	.	.	.	.	8gg#
.	.	.	.	.	.	.	8r
.	.	.	.	.	.	.	8gg#
VII7	A7	.	4.c#	.	4.e	.	8gg
.	.	.	.	.	.	.	8gg
.	.	.	.	.	.	.	8r
.	.	.	16B	.	16d	.	8gg
.	.	.	16c#	.	16e	.	.
=148	=148	=148	=148	=148	=148	=148	=148
i	B-	16BB-	[1d	1r	2d	1r	2ff
.	.	16C	.	.	.	.	.
.	.	16BB-	.	.	.	.	.
.	.	16AA	.	.	.	.	.
.	.	16BB-	.	.	.	.	.
.	.	16D	.	.	.	.	.
.	.	16C	.	.	.	.	.
.	.	16BB-	.	.	.	.	.
III7	D7/A	16AA	.	.	2cc	.	4.ff#
.	.	16BB-	.	.	.	.	.
.	.	16AA	.	.	.	.	.
.	.	16GG	.	.	.	.	.
.	.	16AA	.	.	.	.	.
.	.	16C	.	.	.	.	.
.	.	16BB-	.	.	.	.	16ee
.	.	16AA	.	.	.	.	16ff#
=149	=149	=149	=149	=149	=149	=149	=149
vi	Gm	16GG	2d]	1r	[2b-	1r	16gg
.	.	16AA	.	.	.	.	16ff#
.	.	16BB-	.	.	.	.	16gg
.	.	16C	.	.	.	.	16aa
.	.	16BB-	.	.	.	.	16gg
.	.	16AA	.	.	.	.	16ff#
.	.	16GG	.	.	.	.	16gg
.	.	16FF	.	.	.	.	16aa
viio/iii	Edim	16EE	[2e	.	8b-]	.	8gg
.	.	16FF	.	.	.	.	.
.	.	16GG	.	.	4b-	.	4gg
.	.	16AA	.	.	.	.	.
.	.	16GG	.	.	.	.	.
.	.	16FF	.	.	.	.	.
.	.	16EE	.	.	8b-	.	8gg
.	.	16DD	.	.	.	.	.
=150	=150	=150	=150	=150	=150	=150	=150
*d:	*d:	*d:	*d:	*d:	*d:	*d:	*d:
V7	A7/C#	8CC#	8e]	1r	8a	1r	8gg
.	.	8r	8r	.	8r	.	8r
i	Dm	8DD	8f	.	8a	.	8ff
.	.	8r	8r	.	8r	.	8r
viio/iii	Edim	8GG	8b-	.	8g	.	8ee
.	.	8r	8r	.	8r	.	8r
V7	A7	8AA	8g	.	8e	.	8cc#
.	.	8r	8r	.	8r	.	8r
=151	=151	=151	=151	=151	=151	=151	=151
i	Dm	16DD	4f	1r	2f	1r	2dd
.	.	16EE	.	.	.	.	.
.	.	16DD	.	.	.	.	.
.	.	16CC#	.	.	.	.	.
.	.	16DD	4A	.	.	.	.
.	.	16EE	.	.	.	.	.
.	.	16DD	.	.	.	.	.
.	.	16CC#	.	.	.	.	.
I7	D7	16DD	2c	.	2f#	.	2a
.	.	16EE	.	.	.	.	.
.	.	16DD	.	.	.	.	.
.	.	16CC#	.	.	.	.	.
.	.	16DD	.	.	.	.	.
.	.	16EE	.	.	.	.	.
.	.	16DD	.	.	.	.	.
.	.	16CC#	.	.	.	.	.
=152	=152	=152	=152	=152	=152	=152	=152
iv	Gm/D	16DD	2B-	1r	2g 2G	1r	2b-
.	.	16EE	.	.	.	.	.
.	.	16DD	.	.	.	.	.
.	.	16CC#	.	.	.	.	.
.	.	16DD	.	.	.	.	.
.	.	16EE	.	.	.	.	.
.	.	16DD	.	.	.	.	.
.	.	16CC#	.	.	.	.	.
viioD7	C#dim7	16DD	2G	.	2B- 2e	.	2c#
.	.	16EE	.	.	.	.	.
.	.	16DD	.	.	.	.	.
.	.	16CC#	.	.	.	.	.
.	.	16DD	.	.	.	.	.
.	.	16EE	.	.	.	.	.
.	.	16DD	.	.	.	.	.
.	.	16CC#	.	.	.	.	.
=153	=153	=153	=153	=153	=153	=153	=153
i	Dm	8DD	8F	1r	8f 8A	1r	8d
.	.	8r	8r	.	8r	.	8r
V	A	8AA	8A	.	8c#	.	8e 8A
.	.	8r	8r	.	8r	.	8r
i	Dm	8D	8A	.	8d	.	8f 8A
.	.	8r	8r	.	8r	.	8r
V7	A7	8A	8g 8A	.	8g	.	8cc# 8e
.	.	8r	8r	.	8r	.	8r
=154	=154	=154	=154	=154	=154	=154	=154
i	Dm	8D	8a 8A	1r	8f	1r	8dd
.	.	8r	8r	.	8r	.	8r
V	A	8A	8g 8A	.	8cc# 8e	.	8ee 8a
.	.	8r	8r	.	8r	.	8r
i	Dm	8D	8f 8A	.	8dd 8d	.	8ff 8a
.	.	8r	8r	.	8r	.	8r
V7	A7	8AA	8e 8A	.	8gg 8a	.	8ccc# 8ee
.	.	8r	8r	.	8r	.	8r
=155	=155	=155	=155	=155	=155	=155	=155
i	Dm	4DD	4f 4A	1r	4d 4ff 4a	1r	4d 4dd 4ddd
.	.	2.r	2.r	.	2.r	.	4r
.	.	.	.	.	.	.	2r
==	==	==	==	==	==	==	==
*-	*-	*-	*-	*-	*-	*-	*-
!!!RWG1: This file contains only pitch and duration data.
!!!RWG2: Transposing instruments are not transposed.
!!!RWG3: Spines may have incompatible meters.
!!!RWG4: Durations of rests and tied notes may be interpreted.
!!!RWG: Key is interpreted using the Humdrum key tool.
!!!GTL: 6 Quartetti ("Erd�dy")
!!!OPT: Fifths
!!!AFT: stage1
!!!END: 1997/04/15
!!!KEY: 3342789277
!!!EMD: Converted from MuseData to Humdrum Dec 16, 2000, by Andreas Kornstaedt using muse2kern.
!!!EMD: Manual editing by Craig Sapp, Nov 2001